assets/icons/share.svg

<svg width="25" height="24" viewBox="0 0 25 24" fill="none" xmlns="http://www.w3.org/2000/svg">
<path fill-rule="evenodd" clip-rule="evenodd" d="M9.22077 3.75049H10.305C10.8643 3.75049 11.3177 4.18577 11.3177 4.72271C11.3177 5.25966 10.8643 5.69494 10.305 5.69494H9.29224C7.8314 5.69494 6.83764 5.697 6.09347 5.79305C5.37843 5.88534 5.04724 6.04806 4.82184 6.26445C4.59643 6.48084 4.42693 6.79878 4.3308 7.48522C4.23074 8.19963 4.22859 9.15363 4.22859 10.5561V14.4449C4.22859 15.8474 4.23074 16.8014 4.3308 17.5158C4.42693 18.2022 4.59643 18.5202 4.82184 18.7365C5.04724 18.9529 5.37843 19.1157 6.09347 19.2079C6.83764 19.304 7.8314 19.3061 9.29224 19.3061H13.382C14.8428 19.3061 15.8366 19.304 16.5808 19.2079C17.2958 19.1157 17.627 18.9529 17.8524 18.7365C18.1464 18.4543 18.3391 18.0063 18.4084 16.821C18.4397 16.2849 18.9178 15.8747 19.4763 15.9048C20.0347 15.9349 20.462 16.3939 20.4307 16.93C20.357 18.1907 20.1437 19.2867 19.2846 20.1115C18.6202 20.7494 17.7903 21.0138 16.8507 21.135C15.9556 21.2506 14.8248 21.2505 13.4534 21.2505H9.2208C7.84943 21.2505 6.71859 21.2506 5.82358 21.135C4.88394 21.0138 4.05408 20.7494 3.38962 20.1115C2.72516 19.4736 2.44973 18.6769 2.3234 17.7749C2.20307 16.9157 2.2031 15.8301 2.20313 14.5136V10.4874C2.2031 9.17093 2.20307 8.08533 2.3234 7.22612C2.44973 6.32407 2.72516 5.5274 3.38962 4.88952C4.05408 4.25164 4.88394 3.98722 5.82358 3.86595C6.71859 3.75043 7.84941 3.75046 9.22077 3.75049Z" fill="white"/>
<path d="M17.415 2.75049C16.7802 2.75049 16.2655 3.24457 16.2655 3.85404V6.25049H13.4009C10.093 6.25049 7.41138 8.82485 7.41138 12.0005V14.5005C7.41138 14.8566 7.6722 15.1636 8.03555 15.2352C8.39796 15.3066 8.76271 15.1242 8.90958 14.7985C8.95173 14.7194 9.07266 14.4944 9.1663 14.3499C9.35428 14.06 9.64551 13.6713 10.0536 13.2835C10.8625 12.5147 12.1252 11.7505 13.9958 11.7505H16.2655V14.1469C16.2655 14.7564 16.7802 15.2505 17.415 15.2505C17.7199 15.2505 18.0123 15.1342 18.2279 14.9273L22.9601 10.3844C23.3424 10.0174 23.5572 9.51955 23.5572 9.00049C23.5572 8.48143 23.3424 7.98364 22.9601 7.61661L18.2279 3.07371C18.0123 2.86676 17.7199 2.75049 17.415 2.75049Z" fill="white"/>
</svg>

<svg xmlns="http://www.w3.org/2000/svg" width="25" height="24" fill="none" viewBox="0 0 25 24"><path fill="#fff" fill-rule="evenodd" d="M9.22 3.75h1.085c.56 0 1.013.436 1.013.973s-.454.972-1.013.972H9.292c-1.46 0-2.454.002-3.199.098-.715.092-1.046.255-1.271.471-.226.217-.395.535-.491 1.221-.1.715-.102 1.669-.102 3.071v3.889c0 1.402.002 2.356.102 3.07.096.687.265 1.005.49 1.221.226.217.557.38 1.272.472.745.096 1.738.098 3.2.098h4.089c1.46 0 2.455-.002 3.199-.098.715-.092 1.046-.255 1.271-.471.294-.283.487-.73.556-1.916.032-.536.51-.946 1.068-.916.559.03.986.489.955 1.025-.074 1.26-.287 2.357-1.146 3.182-.665.637-1.495.902-2.434 1.023-.895.116-2.026.115-3.398.115H9.221c-1.372 0-2.502 0-3.397-.115-.94-.121-1.77-.386-2.434-1.024-.665-.637-.94-1.434-1.067-2.336-.12-.86-.12-1.945-.12-3.261v-4.027c0-1.316 0-2.402.12-3.26.127-.903.402-1.7 1.067-2.337s1.494-.903 2.434-1.024c.895-.116 2.025-.116 3.397-.116" clip-rule="evenodd"/><path fill="#fff" d="M17.415 2.75c-.635 0-1.15.495-1.15 1.104V6.25h-2.864c-3.308 0-5.99 2.575-5.99 5.75v2.5c0 .357.261.664.625.735a.79.79 0 0 0 .874-.436 7 7 0 0 1 .256-.45c.188-.289.48-.678.888-1.065.809-.77 2.071-1.533 3.942-1.533h2.27v2.396c0 .61.514 1.104 1.149 1.104.305 0 .597-.117.813-.324l4.732-4.543c.382-.367.597-.864.597-1.384s-.215-1.016-.597-1.383l-4.732-4.543a1.17 1.17 0 0 0-.813-.324"/></svg>
